build/flags/CaboVerde.svg

<svg xmlns="http://www.w3.org/2000/svg" fill="none" viewBox="0 0 28 28" focusable="false"><defs><filter id="Cabo_Verde_svg__a"><feColorMatrix values="0 0 0 0 1 0 0 0 0 1 0 0 0 0 1 0 0 0 1 0"/></filter></defs><mask id="Cabo_Verde_svg__b" width="28" height="20" x="0" y="4" maskUnits="userSpaceOnUse"><g filter="url(#Cabo_Verde_svg__a)"><rect width="28" height="20" y="4" fill="#FFF" rx="3"/><rect width="28" height="20" y="4" stroke="#969696" stroke-opacity="0" stroke-width="0" rx="3"/></g></mask><path fill="none" d="M0 0H28V28H0z"/><rect width="28" height="20" y="4" fill="#FFF" rx="3"/><rect width="28" height="20" y="4" rx="3"/><g mask="url(#Cabo_Verde_svg__b)"><path fill="#0C49AE" fill-rule="evenodd" d="M0 14.6667L28 14.6667L28 4L0 4L0 14.6667Z"/><path d="M28 14.6667L28 4L0 4L0 14.6667L28 14.6667Z"/><path fill="#0C49AE" fill-rule="evenodd" d="M0 24L28 24L28 18.6667L0 18.6667L0 24Z"/><path d="M28 24L28 18.6667L0 18.6667L0 24L28 24Z"/><path fill="#FFF" fill-rule="evenodd" d="M0 18.6667L28 18.6667L28 14.6667L0 14.6667L0 18.6667Z"/><path d="M28 18.6667L28 14.6667L0 14.6667L0 18.6667L28 18.6667Z"/><path fill="#CD232E" fill-rule="evenodd" d="M0 17.3333L28 17.3333L28 16L0 16L0 17.3333Z"/><path d="M28 17.3333L28 16L0 16L0 17.3333L28 17.3333Z"/><path fill="none" d="M10.6667 20.6667C12.8758 20.6667 14.6667 18.8758 14.6667 16.6667C14.6667 14.4575 12.8758 12.6667 10.6667 12.6667C8.45755 12.6667 6.66669 14.4575 6.66669 16.6667C6.66669 18.8758 8.45755 20.6667 10.6667 20.6667Z"/><path stroke="#F7D035" stroke-dasharray="0.666667 2" stroke-width="1.333" d="M14.6667 16.6667C14.6667 14.4575 12.8758 12.6667 10.6667 12.6667C8.45755 12.6667 6.66669 14.4575 6.66669 16.6667C6.66669 18.8758 8.45755 20.6667 10.6667 20.6667C12.8758 20.6667 14.6667 18.8758 14.6667 16.6667Z"/></g></svg>

<svg xmlns="http://www.w3.org/2000/svg" fill="none" viewBox="0 0 28 28" focusable="false"><path fill="none" d="M0 0h28v28H0z"/><rect width="28" height="20" y="4" fill="#FFF" rx="3"/><rect width="28" height="20" y="4" rx="3"/><mask id="Cabo_Verde_svg__a" width="28" height="20" x="0" y="4" mask-type="alpha" maskUnits="userSpaceOnUse"><rect width="28" height="20" y="4" fill="#FFF" rx="3"/><rect width="28" height="20" y="4" stroke="#979797" stroke-opacity="0" stroke-width="0" rx="3"/></mask><g mask="url(#Cabo_Verde_svg__a)"><path fill="#0C49AE" fill-rule="evenodd" d="M0 14.66h28V4H0z"/><path d="M28 14.66V4H0v10.66z"/></g><g mask="url(#Cabo_Verde_svg__a)"><path fill="#0C49AE" fill-rule="evenodd" d="M0 24h28v-5.34H0z"/><path d="M28 24v-5.34H0V24z"/></g><g mask="url(#Cabo_Verde_svg__a)"><path fill="#FFF" fill-rule="evenodd" d="M0 18.66h28v-4H0z"/><path d="M28 18.66v-4H0v4z"/></g><g mask="url(#Cabo_Verde_svg__a)"><path fill="#CD232E" fill-rule="evenodd" d="M0 17.33h28V16H0z"/><path d="M28 17.33V16H0v1.33z"/></g><g mask="url(#Cabo_Verde_svg__a)"><path stroke="#F7D035" stroke-dasharray="0.666667 2" stroke-width="1.333" d="M14.66 16.66c0-2.21-1.79-4-4-4s-4 1.79-4 4 1.79 4 4 4 4-1.79 4-4Z"/></g></svg>
